frame_5.svg

<svg xmlns="http://www.w3.org/2000/svg" width="1000" height="1000" fill="none" viewBox="250 240 500 560"><mask id="a" width="84" height="374" x="310" y="366" maskUnits="userSpaceOnUse" style="mask-type:luminance"><path fill="#fff" d="M310 366h83.047v373.391H310z"/></mask><g mask="url(#a)"><mask id="b" width="84" height="374" x="310" y="366" maskUnits="userSpaceOnUse" style="mask-type:luminance"><path fill="#fff" d="M310 415.271c0-27.058 18.594-49 41.526-49s41.521 21.942 41.521 49v275.12c0 27.057-18.589 49-41.521 49S310 717.448 310 690.391z"/></mask><g mask="url(#b)"><mask id="c" width="85" height="376" x="309" y="365" maskUnits="userSpaceOnUse" style="mask-type:luminance"><path fill="#fff" d="M393.438 365.963h-84V740.63h84z"/></mask><g mask="url(#c)"><mask id="d" width="84" height="374" x="310" y="366" maskUnits="userSpaceOnUse" style="mask-type:luminance"><path fill="#fff" d="M310 366.229h83.047V739.39H310z"/></mask><g mask="url(#d)"><mask id="e" width="84" height="374" x="310" y="366" maskUnits="userSpaceOnUse" style="mask-type:luminance"><path fill="#fff" d="M310 415.271c0-27.058 18.594-49 41.526-49s41.521 21.942 41.521 49v275.12c0 27.057-18.589 49-41.521 49S310 717.448 310 690.391z"/></mask><g mask="url(#e)"><path fill="#0033a0" d="M310 739.39V366.323h83.047V739.39z"/></g></g></g></g></g><mask id="f" width="71" height="71" x="613" y="365" maskUnits="userSpaceOnUse" style="mask-type:luminance"><path fill="#fff" d="M613.75 365.188h69.865v70.682H613.75z"/></mask><g mask="url(#f)"><mask id="g" width="71" height="71" x="613" y="365" maskUnits="userSpaceOnUse" style="mask-type:luminance"><path fill="#fff" d="M613.75 400.635c0-19.458 15.641-35.234 34.932-35.234s34.933 15.776 34.933 35.234c0 19.464-15.641 35.235-34.933 35.235-19.291 0-34.932-15.771-34.932-35.235"/></mask><g mask="url(#g)"><mask id="h" width="72" height="73" x="613" y="365" maskUnits="userSpaceOnUse" style="mask-type:luminance"><path fill="#fff" d="M684.104 365.094h-70.666v72h70.666z"/></mask><g mask="url(#h)"><mask id="i" width="71" height="71" x="613" y="365" maskUnits="userSpaceOnUse" style="mask-type:luminance"><path fill="#fff" d="M613.75 365.359h69.865v70.511H613.75z"/></mask><g mask="url(#i)"><mask id="j" width="71" height="71" x="613" y="365" maskUnits="userSpaceOnUse" style="mask-type:luminance"><path fill="#fff" d="M613.75 400.635c0-19.458 15.641-35.234 34.932-35.234s34.933 15.776 34.933 35.234c0 19.464-15.641 35.235-34.933 35.235-19.291 0-34.932-15.771-34.932-35.235"/></mask><g mask="url(#j)"><path fill="#0033a0" d="M613.75 435.87v-70.412h69.865v70.412z"/></g></g></g></g></g><mask id="k" width="381" height="84" x="310" y="267" maskUnits="userSpaceOnUse" style="mask-type:luminance"><path fill="#fff" d="M310 267h380.219v83.052H310z"/></mask><g mask="url(#k)"><mask id="l" width="381" height="84" x="310" y="267" maskUnits="userSpaceOnUse" style="mask-type:luminance"><path fill="#fff" d="M641.198 267c27.062 0 49 18.589 49 41.526 0 22.932-21.938 41.526-49 41.526H359c-27.062 0-49-18.594-49-41.526C310 285.589 331.938 267 359 267z"/></mask><g mask="url(#l)"><mask id="m" width="382" height="87" x="309" y="265" maskUnits="userSpaceOnUse" style="mask-type:luminance"><path fill="#fff" d="M690.765 265.76H309.432v85.334h381.333z"/></mask><g mask="url(#m)"><mask id="n" width="381" height="84" x="310" y="267" maskUnits="userSpaceOnUse" style="mask-type:luminance"><path fill="#fff" d="M310 267h380.219v83.052H310z"/></mask><g mask="url(#n)"><mask id="o" width="381" height="84" x="310" y="267" maskUnits="userSpaceOnUse" style="mask-type:luminance"><path fill="#fff" d="M641.198 267c27.062 0 49 18.589 49 41.526 0 22.932-21.938 41.526-49 41.526H359c-27.062 0-49-18.594-49-41.526C310 285.589 331.938 267 359 267z"/></mask><g mask="url(#o)"><path fill="#0033a0" d="M310 267h380.219v83.052H310z"/></g></g></g></g></g><mask id="p" width="84" height="374" x="409" y="366" maskUnits="userSpaceOnUse" style="mask-type:luminance"><path fill="#fff" d="M409.052 366h83.052v373.406h-83.052z"/></mask><g mask="url(#p)"><mask id="q" width="84" height="374" x="409" y="366" maskUnits="userSpaceOnUse" style="mask-type:luminance"><path fill="#fff" d="M409.052 415.292c0-27.063 18.588-49 41.526-49 22.932 0 41.526 21.937 41.526 49v275.114c0 27.063-18.594 49-41.526 49-22.938 0-41.526-21.937-41.526-49z"/></mask><g mask="url(#q)"><mask id="r" width="85" height="376" x="408" y="365" maskUnits="userSpaceOnUse" style="mask-type:luminance"><path fill="#fff" d="M492.104 365.984h-84v374.667h84z"/></mask><g mask="url(#r)"><mask id="s" width="84" height="374" x="409" y="366" maskUnits="userSpaceOnUse" style="mask-type:luminance"><path fill="#fff" d="M409.052 366.25h83.052v373.156h-83.052z"/></mask><g mask="url(#s)"><mask id="t" width="84" height="374" x="409" y="366" maskUnits="userSpaceOnUse" style="mask-type:luminance"><path fill="#fff" d="M409.052 415.292c0-27.063 18.588-49 41.526-49 22.932 0 41.526 21.937 41.526 49v275.114c0 27.063-18.594 49-41.526 49-22.938 0-41.526-21.937-41.526-49z"/></mask><g mask="url(#t)"><path fill="#0033a0" d="M409.052 739.406V366.323h83.052v373.083z"/></g></g></g></g></g><mask id="u" width="84" height="179" x="508" y="366" maskUnits="userSpaceOnUse" style="mask-type:luminance"><path fill="#fff" d="M508 366h83.052v178.755H508z"/></mask><g mask="url(#u)"><mask id="v" width="84" height="179" x="508" y="366" maskUnits="userSpaceOnUse" style="mask-type:luminance"><path fill="#fff" d="M508 415.109c0-27.062 18.594-49 41.526-49 22.938 0 41.526 21.938 41.526 49v80.646c0 27.063-18.588 49-41.526 49-22.932 0-41.526-21.937-41.526-49z"/></mask><g mask="url(#v)"><mask id="w" width="87" height="181" x="506" y="365" maskUnits="userSpaceOnUse" style="mask-type:luminance"><path fill="#fff" d="M592.005 365.802h-85.333v180h85.333z"/></mask><g mask="url(#w)"><mask id="x" width="84" height="179" x="508" y="366" maskUnits="userSpaceOnUse" style="mask-type:luminance"><path fill="#fff" d="M508 366.068h83.052v178.687H508z"/></mask><g mask="url(#x)"><mask id="y" width="84" height="179" x="508" y="366" maskUnits="userSpaceOnUse" style="mask-type:luminance"><path fill="#fff" d="M508 415.109c0-27.062 18.594-49 41.526-49 22.938 0 41.526 21.938 41.526 49v80.646c0 27.063-18.588 49-41.526 49-22.932 0-41.526-21.937-41.526-49z"/></mask><g mask="url(#y)"><path fill="#0033a0" d="M508 544.755V366h83.052v178.755z"/></g></g></g></g></g><mask id="z" width="84" height="179" x="508" y="560" maskUnits="userSpaceOnUse" style="mask-type:luminance"><path fill="#fff" d="M508.104 560h83.052v178.755h-83.052z"/></mask><g mask="url(#z)"><mask id="A" width="84" height="179" x="508" y="560" maskUnits="userSpaceOnUse" style="mask-type:luminance"><path fill="#fff" d="M508.104 609.109c0-27.062 18.594-49 41.526-49 22.938 0 41.526 21.938 41.526 49v80.646c0 27.063-18.588 49-41.526 49-22.932 0-41.526-21.937-41.526-49z"/></mask><g mask="url(#A)"><mask id="B" width="87" height="180" x="506" y="560" maskUnits="userSpaceOnUse" style="mask-type:luminance"><path fill="#fff" d="M592.109 560h-85.333v180h85.333z"/></mask><g mask="url(#B)"><mask id="C" width="84" height="179" x="508" y="560" maskUnits="userSpaceOnUse" style="mask-type:luminance"><path fill="#fff" d="M508.104 560h83.052v178.755h-83.052z"/></mask><g mask="url(#C)"><mask id="D" width="84" height="179" x="508" y="560" maskUnits="userSpaceOnUse" style="mask-type:luminance"><path fill="#fff" d="M508.104 609.109c0-27.062 18.594-49 41.526-49 22.938 0 41.526 21.938 41.526 49v80.646c0 27.063-18.588 49-41.526 49-22.932 0-41.526-21.937-41.526-49z"/></mask><g mask="url(#D)"><path fill="#0033a0" d="M508.104 738.755V560h83.052v178.755z"/></g></g></g></g></g><mask id="E" width="84" height="289" x="608" y="451" maskUnits="userSpaceOnUse" style="mask-type:luminance"><path fill="#fff" d="M608.151 451h83.052v288.083h-83.052z"/></mask><g mask="url(#E)"><mask id="F" width="84" height="289" x="608" y="451" maskUnits="userSpaceOnUse" style="mask-type:luminance"><path fill="#fff" d="M608.151 500.26c0-27.062 18.594-49 41.526-49s41.526 21.938 41.526 49v189.823c0 27.063-18.594 49-41.526 49s-41.526-21.937-41.526-49z"/></mask><g mask="url(#F)"><mask id="G" width="85" height="291" x="607" y="450" maskUnits="userSpaceOnUse" style="mask-type:luminance"><path fill="#fff" d="M691.771 450.995h-84v289.333h84z"/></mask><g mask="url(#G)"><mask id="H" width="84" height="289" x="608" y="451" maskUnits="userSpaceOnUse" style="mask-type:luminance"><path fill="#fff" d="M608.151 451.047h83.052v288.036h-83.052z"/></mask><g mask="url(#H)"><mask id="I" width="84" height="289" x="608" y="451" maskUnits="userSpaceOnUse" style="mask-type:luminance"><path fill="#fff" d="M608.151 500.26c0-27.062 18.594-49 41.526-49s41.526 21.938 41.526 49v189.823c0 27.063-18.594 49-41.526 49s-41.526-21.937-41.526-49z"/></mask><g mask="url(#I)"><path fill="#0033a0" d="M608.151 739.083v-287.76h83.052v287.76z"/></g></g></g></g></g></svg>

<svg width="1000" height="1000" viewBox="250 240 500 560" fill="none" xmlns="http://www.w3.org/2000/svg">
<mask id="mask0_1827_247" style="mask-type:luminance" maskUnits="userSpaceOnUse" x="310" y="366" width="84" height="374">
<path d="M310 366H393.047V739.391H310V366Z" fill="white"/>
</mask>
<g mask="url(#mask0_1827_247)">
<mask id="mask1_1827_247" style="mask-type:luminance" maskUnits="userSpaceOnUse" x="310" y="366" width="84" height="374">
<path d="M310 415.271C310 388.213 328.594 366.271 351.526 366.271C374.458 366.271 393.047 388.213 393.047 415.271V690.391C393.047 717.448 374.458 739.391 351.526 739.391C328.594 739.391 310 717.448 310 690.391V415.271Z" fill="white"/>
</mask>
<g mask="url(#mask1_1827_247)">
<mask id="mask2_1827_247" style="mask-type:luminance" maskUnits="userSpaceOnUse" x="309" y="365" width="85" height="376">
<path d="M393.438 365.963H309.438V740.63H393.438V365.963Z" fill="white"/>
</mask>
<g mask="url(#mask2_1827_247)">
<mask id="mask3_1827_247" style="mask-type:luminance" maskUnits="userSpaceOnUse" x="310" y="366" width="84" height="374">
<path d="M310 366.229H393.047V739.39H310V366.229Z" fill="white"/>
</mask>
<g mask="url(#mask3_1827_247)">
<mask id="mask4_1827_247" style="mask-type:luminance" maskUnits="userSpaceOnUse" x="310" y="366" width="84" height="374">
<path d="M310 415.271C310 388.213 328.594 366.271 351.526 366.271C374.458 366.271 393.047 388.213 393.047 415.271V690.391C393.047 717.448 374.458 739.391 351.526 739.391C328.594 739.391 310 717.448 310 690.391V415.271Z" fill="white"/>
</mask>
<g mask="url(#mask4_1827_247)">
<path d="M310 739.39V366.323H393.047V739.39H310Z" fill="#0033A0"/>
</g>
</g>
</g>
</g>
</g>
<mask id="mask5_1827_247" style="mask-type:luminance" maskUnits="userSpaceOnUse" x="613" y="365" width="71" height="71">
<path d="M613.75 365.188H683.615V435.87H613.75V365.188Z" fill="white"/>
</mask>
<g mask="url(#mask5_1827_247)">
<mask id="mask6_1827_247" style="mask-type:luminance" maskUnits="userSpaceOnUse" x="613" y="365" width="71" height="71">
<path d="M613.75 400.635C613.75 381.177 629.391 365.401 648.682 365.401C667.974 365.401 683.615 381.177 683.615 400.635C683.615 420.099 667.974 435.87 648.682 435.87C629.391 435.87 613.75 420.099 613.75 400.635Z" fill="white"/>
</mask>
<g mask="url(#mask6_1827_247)">
<mask id="mask7_1827_247" style="mask-type:luminance" maskUnits="userSpaceOnUse" x="613" y="365" width="72" height="73">
<path d="M684.104 365.094H613.438V437.094H684.104V365.094Z" fill="white"/>
</mask>
<g mask="url(#mask7_1827_247)">
<mask id="mask8_1827_247" style="mask-type:luminance" maskUnits="userSpaceOnUse" x="613" y="365" width="71" height="71">
<path d="M613.75 365.359H683.615V435.87H613.75V365.359Z" fill="white"/>
</mask>
<g mask="url(#mask8_1827_247)">
<mask id="mask9_1827_247" style="mask-type:luminance" maskUnits="userSpaceOnUse" x="613" y="365" width="71" height="71">
<path d="M613.75 400.635C613.75 381.177 629.391 365.401 648.682 365.401C667.974 365.401 683.615 381.177 683.615 400.635C683.615 420.099 667.974 435.87 648.682 435.87C629.391 435.87 613.75 420.099 613.75 400.635Z" fill="white"/>
</mask>
<g mask="url(#mask9_1827_247)">
<path d="M613.75 435.87V365.458H683.615V435.87H613.75Z" fill="#0033A0"/>
</g>
</g>
</g>
</g>
</g>
<mask id="mask10_1827_247" style="mask-type:luminance" maskUnits="userSpaceOnUse" x="310" y="267" width="381" height="84">
<path d="M310 267H690.219V350.052H310V267Z" fill="white"/>
</mask>
<g mask="url(#mask10_1827_247)">
<mask id="mask11_1827_247" style="mask-type:luminance" maskUnits="userSpaceOnUse" x="310" y="267" width="381" height="84">
<path d="M641.198 267C668.26 267 690.198 285.589 690.198 308.526C690.198 331.458 668.26 350.052 641.198 350.052H359C331.938 350.052 310 331.458 310 308.526C310 285.589 331.938 267 359 267H641.198Z" fill="white"/>
</mask>
<g mask="url(#mask11_1827_247)">
<mask id="mask12_1827_247" style="mask-type:luminance" maskUnits="userSpaceOnUse" x="309" y="265" width="382" height="87">
<path d="M690.765 265.76H309.432V351.094H690.765V265.76Z" fill="white"/>
</mask>
<g mask="url(#mask12_1827_247)">
<mask id="mask13_1827_247" style="mask-type:luminance" maskUnits="userSpaceOnUse" x="310" y="267" width="381" height="84">
<path d="M310 267H690.219V350.052H310V267Z" fill="white"/>
</mask>
<g mask="url(#mask13_1827_247)">
<mask id="mask14_1827_247" style="mask-type:luminance" maskUnits="userSpaceOnUse" x="310" y="267" width="381" height="84">
<path d="M641.198 267C668.26 267 690.198 285.589 690.198 308.526C690.198 331.458 668.26 350.052 641.198 350.052H359C331.938 350.052 310 331.458 310 308.526C310 285.589 331.938 267 359 267H641.198Z" fill="white"/>
</mask>
<g mask="url(#mask14_1827_247)">
<path d="M310 267H690.219V350.052H310V267Z" fill="#0033A0"/>
</g>
</g>
</g>
</g>
</g>
<mask id="mask15_1827_247" style="mask-type:luminance" maskUnits="userSpaceOnUse" x="409" y="366" width="84" height="374">
<path d="M409.052 366H492.104V739.406H409.052V366Z" fill="white"/>
</mask>
<g mask="url(#mask15_1827_247)">
<mask id="mask16_1827_247" style="mask-type:luminance" maskUnits="userSpaceOnUse" x="409" y="366" width="84" height="374">
<path d="M409.052 415.292C409.052 388.229 427.64 366.292 450.578 366.292C473.51 366.292 492.104 388.229 492.104 415.292V690.406C492.104 717.469 473.51 739.406 450.578 739.406C427.64 739.406 409.052 717.469 409.052 690.406V415.292Z" fill="white"/>
</mask>
<g mask="url(#mask16_1827_247)">
<mask id="mask17_1827_247" style="mask-type:luminance" maskUnits="userSpaceOnUse" x="408" y="365" width="85" height="376">
<path d="M492.104 365.984H408.104V740.651H492.104V365.984Z" fill="white"/>
</mask>
<g mask="url(#mask17_1827_247)">
<mask id="mask18_1827_247" style="mask-type:luminance" maskUnits="userSpaceOnUse" x="409" y="366" width="84" height="374">
<path d="M409.052 366.25H492.104V739.406H409.052V366.25Z" fill="white"/>
</mask>
<g mask="url(#mask18_1827_247)">
<mask id="mask19_1827_247" style="mask-type:luminance" maskUnits="userSpaceOnUse" x="409" y="366" width="84" height="374">
<path d="M409.052 415.292C409.052 388.229 427.64 366.292 450.578 366.292C473.51 366.292 492.104 388.229 492.104 415.292V690.406C492.104 717.469 473.51 739.406 450.578 739.406C427.64 739.406 409.052 717.469 409.052 690.406V415.292Z" fill="white"/>
</mask>
<g mask="url(#mask19_1827_247)">
<path d="M409.052 739.406V366.323H492.104V739.406H409.052Z" fill="#0033A0"/>
</g>
</g>
</g>
</g>
</g>
<mask id="mask20_1827_247" style="mask-type:luminance" maskUnits="userSpaceOnUse" x="508" y="366" width="84" height="179">
<path d="M508 366H591.052V544.755H508V366Z" fill="white"/>
</mask>
<g mask="url(#mask20_1827_247)">
<mask id="mask21_1827_247" style="mask-type:luminance" maskUnits="userSpaceOnUse" x="508" y="366" width="84" height="179">
<path d="M508 415.109C508 388.047 526.594 366.109 549.526 366.109C572.464 366.109 591.052 388.047 591.052 415.109V495.755C591.052 522.818 572.464 544.755 549.526 544.755C526.594 544.755 508 522.818 508 495.755V415.109Z" fill="white"/>
</mask>
<g mask="url(#mask21_1827_247)">
<mask id="mask22_1827_247" style="mask-type:luminance" maskUnits="userSpaceOnUse" x="506" y="365" width="87" height="181">
<path d="M592.005 365.802H506.672V545.802H592.005V365.802Z" fill="white"/>
</mask>
<g mask="url(#mask22_1827_247)">
<mask id="mask23_1827_247" style="mask-type:luminance" maskUnits="userSpaceOnUse" x="508" y="366" width="84" height="179">
<path d="M508 366.068H591.052V544.755H508V366.068Z" fill="white"/>
</mask>
<g mask="url(#mask23_1827_247)">
<mask id="mask24_1827_247" style="mask-type:luminance" maskUnits="userSpaceOnUse" x="508" y="366" width="84" height="179">
<path d="M508 415.109C508 388.047 526.594 366.109 549.526 366.109C572.464 366.109 591.052 388.047 591.052 415.109V495.755C591.052 522.818 572.464 544.755 549.526 544.755C526.594 544.755 508 522.818 508 495.755V415.109Z" fill="white"/>
</mask>
<g mask="url(#mask24_1827_247)">
<path d="M508 544.755V366H591.052V544.755H508Z" fill="#0033A0"/>
</g>
</g>
</g>
</g>
</g>
<mask id="mask25_1827_247" style="mask-type:luminance" maskUnits="userSpaceOnUse" x="508" y="560" width="84" height="179">
<path d="M508.104 560H591.156V738.755H508.104V560Z" fill="white"/>
</mask>
<g mask="url(#mask25_1827_247)">
<mask id="mask26_1827_247" style="mask-type:luminance" maskUnits="userSpaceOnUse" x="508" y="560" width="84" height="179">
<path d="M508.104 609.109C508.104 582.047 526.698 560.109 549.63 560.109C572.568 560.109 591.156 582.047 591.156 609.109V689.755C591.156 716.818 572.568 738.755 549.63 738.755C526.698 738.755 508.104 716.818 508.104 689.755V609.109Z" fill="white"/>
</mask>
<g mask="url(#mask26_1827_247)">
<mask id="mask27_1827_247" style="mask-type:luminance" maskUnits="userSpaceOnUse" x="506" y="560" width="87" height="180">
<path d="M592.109 560H506.776V740H592.109V560Z" fill="white"/>
</mask>
<g mask="url(#mask27_1827_247)">
<mask id="mask28_1827_247" style="mask-type:luminance" maskUnits="userSpaceOnUse" x="508" y="560" width="84" height="179">
<path d="M508.104 560H591.156V738.755H508.104V560Z" fill="white"/>
</mask>
<g mask="url(#mask28_1827_247)">
<mask id="mask29_1827_247" style="mask-type:luminance" maskUnits="userSpaceOnUse" x="508" y="560" width="84" height="179">
<path d="M508.104 609.109C508.104 582.047 526.698 560.109 549.63 560.109C572.568 560.109 591.156 582.047 591.156 609.109V689.755C591.156 716.818 572.568 738.755 549.63 738.755C526.698 738.755 508.104 716.818 508.104 689.755V609.109Z" fill="white"/>
</mask>
<g mask="url(#mask29_1827_247)">
<path d="M508.104 738.755V560H591.156V738.755H508.104Z" fill="#0033A0"/>
</g>
</g>
</g>
</g>
</g>
<mask id="mask30_1827_247" style="mask-type:luminance" maskUnits="userSpaceOnUse" x="608" y="451" width="84" height="289">
<path d="M608.151 451H691.203V739.083H608.151V451Z" fill="white"/>
</mask>
<g mask="url(#mask30_1827_247)">
<mask id="mask31_1827_247" style="mask-type:luminance" maskUnits="userSpaceOnUse" x="608" y="451" width="84" height="289">
<path d="M608.151 500.26C608.151 473.198 626.745 451.26 649.677 451.26C672.609 451.26 691.203 473.198 691.203 500.26V690.083C691.203 717.146 672.609 739.083 649.677 739.083C626.745 739.083 608.151 717.146 608.151 690.083V500.26Z" fill="white"/>
</mask>
<g mask="url(#mask31_1827_247)">
<mask id="mask32_1827_247" style="mask-type:luminance" maskUnits="userSpaceOnUse" x="607" y="450" width="85" height="291">
<path d="M691.771 450.995H607.771V740.328H691.771V450.995Z" fill="white"/>
</mask>
<g mask="url(#mask32_1827_247)">
<mask id="mask33_1827_247" style="mask-type:luminance" maskUnits="userSpaceOnUse" x="608" y="451" width="84" height="289">
<path d="M608.151 451.047H691.203V739.083H608.151V451.047Z" fill="white"/>
</mask>
<g mask="url(#mask33_1827_247)">
<mask id="mask34_1827_247" style="mask-type:luminance" maskUnits="userSpaceOnUse" x="608" y="451" width="84" height="289">
<path d="M608.151 500.26C608.151 473.198 626.745 451.26 649.677 451.26C672.609 451.26 691.203 473.198 691.203 500.26V690.083C691.203 717.146 672.609 739.083 649.677 739.083C626.745 739.083 608.151 717.146 608.151 690.083V500.26Z" fill="white"/>
</mask>
<g mask="url(#mask34_1827_247)">
<path d="M608.151 739.083V451.323H691.203V739.083H608.151Z" fill="#0033A0"/>
</g>
</g>
</g>
</g>
</g>
</svg>
